Sources/FrostedUI/Resources/Icons.xcassets/addUser24.imageset/add-user-24.svg

<svg width="24" height="24" viewBox="0 0 24 24" fill="none" xmlns="http://www.w3.org/2000/svg" data-fui-icon="true">
  <path
    d="M19.1992 14.8496C19.6133 14.8496 19.949 15.1856 19.9492 15.5996V18.4492H22.7998C23.2137 18.4493 23.5494 18.7854 23.5498 19.1992C23.5498 19.6134 23.2139 19.9491 22.7998 19.9492H19.9492V22.7998C19.9491 23.2139 19.6134 23.5498 19.1992 23.5498C18.7854 23.5494 18.4493 23.2137 18.4492 22.7998V19.9492H15.5996C15.1856 19.949 14.8496 19.6133 14.8496 19.1992C14.85 18.7855 15.1858 18.4494 15.5996 18.4492H18.4492V15.5996C18.4494 15.1858 18.7855 14.85 19.1992 14.8496ZM12.001 13.3506C13.1348 13.3507 14.225 13.5315 15.2354 13.8643C15.6282 13.9942 15.8424 14.4184 15.7129 14.8115C15.5832 15.2042 15.1595 15.4177 14.7666 15.2891C13.9072 15.006 12.975 14.8507 12.001 14.8506C7.53127 14.8506 4.0509 18.0818 4.05078 21.9004C4.05047 22.3141 3.71444 22.65 3.30078 22.6504C2.88676 22.6504 2.5511 22.3143 2.55078 21.9004C2.5509 17.1035 6.86108 13.3506 12.001 13.3506ZM12 1.35059C14.8993 1.35078 17.25 3.70121 17.25 6.60059C17.2497 9.49969 14.8991 11.8504 12 11.8506C9.10087 11.8504 6.75032 9.49969 6.75 6.60059C6.75 3.70121 9.10067 1.35078 12 1.35059ZM12 2.85059C9.9291 2.85078 8.25 4.52964 8.25 6.60059C8.25032 8.67126 9.9293 10.3504 12 10.3506C14.0707 10.3504 15.7497 8.67126 15.75 6.60059C15.75 4.52964 14.0709 2.85078 12 2.85059Z"
    fill="currentColor"
  />
</svg>

<svg xmlns="http://www.w3.org/2000/svg" width="24" height="24" fill="none" data-fui-icon="true" viewBox="0 0 24 24"><path fill="currentColor" d="M19.2 14.85a.75.75 0 0 1 .75.75v2.85h2.85a.75.75 0 0 1 0 1.5h-2.85v2.85a.75.75 0 0 1-1.5 0v-2.85H15.6a.75.75 0 0 1 0-1.5h2.85V15.6c0-.414.335-.75.75-.75M12 13.35c1.134 0 2.224.181 3.234.514a.75.75 0 0 1-.468 1.425A8.8 8.8 0 0 0 12 14.851c-4.47 0-7.95 3.23-7.95 7.05a.751.751 0 0 1-1.5 0c0-4.797 4.31-8.55 9.45-8.55M12 1.35a5.25 5.25 0 1 1 0 10.501 5.25 5.25 0 0 1 0-10.5m0 1.5a3.75 3.75 0 1 0 0 7.501 3.75 3.75 0 0 0 0-7.5"/></svg>
